X:1
T:Title
%%score { ( 1 3 ) | ( 2 4 ) }
L:1/8
Q:1/4=94
M:4/4
K:Ab
V:1 treble nm="Grand Piano"
V:3 treble 
V:2 bass 
V:4 bass 
V:1
 [Ec]3 [DG] [DB][CA][A,C][B,D] | [DF]4 [CE]2 z2 | [Gd]3 B GD F>B, | [B,D]4 [A,C]2 z2 | %4
w: John~R.~Sweney * * * * *||||
 [CE]3 [CA] [Ec][DB][CA]E | G4 F2 z2 | [Ed]3 B GE c>B | [CA]6 z2 | G3 A B=AB[Ge] | e4 =d2 z2 | %10
w: ||||||
 F3 G AB =d>c | [Ac]4 [GB]2 z2 | [GB]3 [EG] [EB][Ge] [Gf]>[Ge] | e4 c2 z2 | %14
w: ||||
 =d3 c B[=DF] [DA]>[DF] | z2 [F,A,]2[K:treble] [Ed]4 | [Ec]3 [DG] [DB][CA][A,C][B,D] | %17
w: |||
 [DF]4 [CE]2 z2 | [Gd]3 B GD F>B, | [B,D]4 [A,C]2 z2 | [CE]3 [CA] [Ec][DB][CA]E | G4 F2 z2 | %22
w: |||||
 [Ed]3 B GE c>B |[M:8/4] [CA]8 z8 |] %24
w: ||
V:2
 [A,,A,]3 [A,,E,] [A,,E,][A,,E,][A,,E,][A,,E,] | [A,,A,]6 z2 | %2
 [E,B,]3 [E,G,E] [E,B,D][E,G,B,] [E,G,B,]>[E,G,] | [A,,E,]6 z2 | %4
 [A,,A,]3 [A,,E,] [A,,E,][A,,E,][A,,E,][C,A,] | [D,A,D]6 z2 | %6
 [B,,G,]3 [E,G,E] [E,B,D][E,G,D] [E,A,E]>[E,D] | [A,,E,]6 z2 | %8
 [E,B,]3 [E,A,C] [D,G,E][E,_G,E][E,=G,E][E,B,] | [F,B,]6 z2 | %10
 [B,=D]3 [B,E] [B,F][B,G] [B,A]>[B,DA] | [E,E]6 z2 | [E,E]3 [E,B,] [E,G,][E,B,] [E,D]>[E,D] | %13
 [A,A]4- [A,EA]2 z2 | [B,A]3 [B,A] [B,G][K:bass][B,,B,] [B,,F,]>[B,,A,] | [E,G,]2 z2 [G,B,]4 | %16
 [A,,A,]3 [A,,E,] [A,,E,][A,,E,][A,,E,][A,,E,] | [A,,A,]6 z2 | %18
 [E,B,]3 [E,G,E] [E,B,D][E,G,B,] [E,G,B,]>[E,G,] | [A,,E,]6 z2 | %20
 [A,,A,]3 [A,,E,] [A,,E,][A,,E,][A,,E,][C,A,] | [D,A,D]6 z2 | %22
 [B,,G,]3 [E,G,E] [E,B,D][E,G,D] [E,A,E]>[E,D] |[M:8/4] [A,,E,]8 z8 |] %24
V:3
 x8 | x8 | x8 | x8 | x8 | x8 | x8 | x8 | x8 | A6 z2 | x8 | x8 | x8 | x8 | x8 | %15
 [B,E]4[K:treble] z4 | x8 | x8 | x8 | x8 | x8 | x8 | x8 |[M:8/4] x16 |] %24
V:4
 x8 | x8 | x8 | x8 | x8 | x8 | x8 | x8 | x8 | x8 | x8 | x8 | x8 | C4 z4 | x5[K:bass] x3 | x8 | x8 | %17
 x8 | x8 | x8 | x8 | x8 | x8 |[M:8/4] x16 |] %24

